images/sending.svg

<?xml version="1.0" encoding="UTF-8"?>
<svg width="12px" height="12px" viewBox="0 0 12 12" version="1.1" xmlns="http://www.w3.org/2000/svg" xmlns:xlink="http://www.w3.org/1999/xlink">
    <!-- Generator: Sketch 50.2 (55047) - http://www.bohemiancoding.com/sketch -->
    <title>sending</title>
    <desc>Created with Sketch.</desc>
    <defs></defs>
    <g id="iOS-Light" stroke="none" stroke-width="1" fill="none" fill-rule="evenodd">
        <g id="iOS-Light/Message/Status/Sending" transform="translate(-6.000000, 0.000000)" fill="#000000">
            <path d="M11.5,0 L12.5,0 L12.5,1 L11.5,1 L11.5,0 Z M11.5,11 L12.5,11 L12.5,12 L11.5,12 L11.5,11 Z M6,5.5 L7,5.5 L7,6.5 L6,6.5 L6,5.5 Z M17,5.5 L18,5.5 L18,6.5 L17,6.5 L17,5.5 Z M16.9461524,2.5669873 L17.4461524,3.4330127 L16.580127,3.9330127 L16.080127,3.0669873 L16.9461524,2.5669873 Z M7.41987298,8.0669873 L7.91987298,8.9330127 L7.05384758,9.4330127 L6.55384758,8.5669873 L7.41987298,8.0669873 Z M9.4330127,0.553847577 L9.9330127,1.41987298 L9.0669873,1.91987298 L8.5669873,1.05384758 L9.4330127,0.553847577 Z M14.9330127,10.080127 L15.4330127,10.9461524 L14.5669873,11.4461524 L14.0669873,10.580127 L14.9330127,10.080127 Z M14.5669873,0.553847577 L15.4330127,1.05384758 L14.9330127,1.91987298 L14.0669873,1.41987298 L14.5669873,0.553847577 Z M9.0669873,10.080127 L9.9330127,10.580127 L9.4330127,11.4461524 L8.5669873,10.9461524 L9.0669873,10.080127 Z M7.05384758,2.5669873 L7.91987298,3.0669873 L7.41987298,3.9330127 L6.55384758,3.4330127 L7.05384758,2.5669873 Z M16.580127,8.0669873 L17.4461524,8.5669873 L16.9461524,9.4330127 L16.080127,8.9330127 L16.580127,8.0669873 Z" id="sending"></path>
        </g>
    </g>
</svg>

<svg height="12" viewBox="0 0 12 12" width="12" xmlns="http://www.w3.org/2000/svg"><path d="m11.5 0h1v1h-1zm0 11h1v1h-1zm-5.5-5.5h1v1h-1zm11 0h1v1h-1zm-.0538476-2.9330127.5.8660254-.8660254.5-.5-.8660254zm-9.52627942 5.5.5.8660254-.8660254.5-.5-.8660254zm2.01313972-7.51313972.5.8660254-.8660254.5-.5-.8660254zm5.5 9.52627942.5.8660254-.8660254.5-.5-.8660254zm-.3660254-9.52627942.8660254.5-.5.8660254-.8660254-.5zm-5.5 9.52627942.8660254.5-.5.8660254-.8660254-.5zm-2.01313972-7.5131397.8660254.5-.5.8660254-.8660254-.5zm9.52627942 5.5.8660254.5-.5.8660254-.8660254-.5z" fill-rule="evenodd" transform="translate(-6)"/></svg>
